X:9
T:Ei, du feiner ...
B:Frau Nachtigall (Straburg - 1928)
Z:<anamnese@laposte.net> -- http://anamnese.fr.st
N:p.18
M:C|
L:1/4
Q:1/4=150
K:D
&quot;D&quot; F > G A &quot;G&quot;B | &quot;D&quot; A2 A &quot;G&quot; G | &quot;A&quot; F-F &quot;A7&quot; E E | &quot;D&quot; D3 z::
 &quot;A&quot; c3/2  &quot;B&quot; d/ &quot;C#&quot; e &quot;D&quot; f | &quot;A&quot; e2 e &quot;D&quot;d |&quot;A&quot; c-c &quot;E7&quot; B-B |&quot;A&quot; A3 A:| 
d2 B2 | A3 A | d B | A3 A | d2 d e | d2 c2 | d2 B2 |
 A3 z | F > G A B | A > A A G | F F E E | D3 z |]
